wefunder.svg

<svg width="165" height="45" viewBox="0 0 165 45" fill="none" xmlns="http://www.w3.org/2000/svg">
<path d="M44.0391 38.5328H56.7246V35.3844H47.5322V31.6845H55.5296V28.5361H47.5322V24.9511H56.6097V21.8027H44.0391V38.5328ZM60.2425 38.5328H63.7586V31.9832H71.8479V28.7659H63.7586V25.02H72.905V21.8027H60.2425V38.5328ZM83.0495 38.7856C87.5307 38.7856 90.3574 36.3037 90.3574 31.2478V21.8027H86.8413V31.4087C86.8413 34.1434 85.4165 35.5453 83.0954 35.5453C80.7743 35.5453 79.3725 34.0745 79.3725 31.2708V21.8027H75.8334V31.3857C75.8334 36.2807 78.5911 38.7856 83.0495 38.7856ZM94.3548 38.5328H97.825V27.6398L106.144 38.5328H109.154V21.8027H105.661V32.3509L97.5951 21.8027H94.3548V38.5328ZM113.43 38.5328H119.888C125.151 38.5328 128.782 34.8788 128.782 30.1677V30.1218C128.782 25.4107 125.151 21.8027 119.888 21.8027H113.43V38.5328ZM119.888 24.997C122.99 24.997 125.082 27.1342 125.082 30.1677V30.2137C125.082 33.2472 122.99 35.3384 119.888 35.3384H116.946V24.997H119.888ZM132.304 38.5328H144.99V35.3844H135.797V31.6845H143.795V28.5361H135.797V24.9511H144.875V21.8027H132.304V38.5328ZM152.024 29.9609V24.997H155.816C157.677 24.997 158.826 25.8473 158.826 27.456V27.5019C158.826 28.9727 157.723 29.9609 155.885 29.9609H152.024ZM148.508 38.5328H152.024V33.0863H155.08L158.78 38.5328H162.917L158.734 32.4888C160.894 31.7304 162.388 30.0298 162.388 27.3181V27.2721C162.388 25.7324 161.906 24.4225 160.986 23.5033C159.883 22.4002 158.229 21.8027 156.114 21.8027H148.508V38.5328Z" fill="white"/>
<path d="M3 29.4853L6.36524 22.194C6.60628 21.6717 7.35366 21.6867 7.57359 22.2182L14.3487 38.5913C14.5779 39.1453 15.3677 39.1308 15.5764 38.5687L23.1127 18.279C23.315 17.7341 24.0721 17.6984 24.3249 18.2217L32.5064 35.1596C32.7713 35.7081 33.5744 35.6351 33.7362 35.048L43.1168 1" stroke="white" stroke-width="4.86264"/>
</svg>

<svg xmlns="http://www.w3.org/2000/svg" width="165" height="45" fill="none"><path fill="#fff" d="M44.04 38.533h12.685v-3.149h-9.193v-3.7h7.998v-3.148h-7.998v-3.585h9.078v-3.148H44.04zm16.203 0h3.516v-6.55h8.089v-3.217h-8.09V25.02h9.147v-3.217H60.242zm22.806.253c4.482 0 7.308-2.482 7.308-7.538v-9.445h-3.516v9.606c0 2.734-1.424 4.136-3.746 4.136-2.32 0-3.722-1.47-3.722-4.274v-9.468h-3.54v9.583c0 4.895 2.758 7.4 7.216 7.4m11.306-.253h3.47V27.64l8.319 10.893h3.01v-16.73h-3.493V32.35l-8.066-10.548h-3.24zm19.075 0h6.458c5.263 0 8.894-3.654 8.894-8.365v-.046c0-4.711-3.631-8.32-8.894-8.32h-6.458zm6.458-13.536c3.102 0 5.194 2.137 5.194 5.17v.047c0 3.033-2.092 5.124-5.194 5.124h-2.942V24.997zm12.416 13.536h12.686v-3.149h-9.193v-3.7h7.998v-3.148h-7.998v-3.585h9.078v-3.148h-12.571zm19.72-8.572v-4.964h3.792c1.861 0 3.01.85 3.01 2.459v.046c0 1.47-1.103 2.459-2.941 2.459zm-3.516 8.572h3.516v-5.447h3.056l3.7 5.447h4.137l-4.183-6.044c2.16-.759 3.654-2.46 3.654-5.17v-.047c0-1.54-.482-2.85-1.402-3.769-1.103-1.103-2.757-1.7-4.872-1.7h-7.606z"/><path stroke="#fff" stroke-width="4.863" d="m3 29.485 3.365-7.291a.66.66 0 0 1 1.209.024l6.775 16.373a.66.66 0 0 0 1.227-.022l7.537-20.29a.66.66 0 0 1 1.212-.057l8.181 16.938a.66.66 0 0 0 1.23-.112L43.116 1"/></svg>
